!!!COM: Palestrina, Giovanni Perluigi da
!!!OPR: Missa O admirabile commercium
!!!OTL: Agnus II
**kern	**kern	**kern	**kern	**kern
*Ibass	*Itenor	*Itenor	*Icalto	*Icant
!Bassus	!Tenor 2	!Tenor 1	!Altus	!Cantus
*clefF4	*clefGv2	*clefGv2	*clefG2	*clefG2
*k[]	*k[]	*k[]	*k[]	*k[]
*G:mix	*G:mix	*G:mix	*G:mix	*G:mix
*M4/2	*M4/2	*M4/2	*M4/2	*M4/2
=1	=1	=1	=1	=1
1.c	2r	1r	0r	0r
.	2c	.	.	.
.	2e	[1g	.	.
2B	2d	.	.	.
=2	=2	=2	=2	=2
2c	2e	2g]	0r	0r
2A	2f#	2c	.	.
2B	2g	2d	.	.
[2c	[2a	[2e	.	.
=3	=3	=3	=3	=3
4c]	4a]	4e]	1r	1r
4B	4g	4d	.	.
4B	1g	2d	.	.
8A	.	.	.	.
8G	.	.	.	.
1A	.	1c	2r	[1cc
.	2f#	.	2c	.
=4	=4	=4	=4	=4
1G	1g	2r	2e	2cc]
.	.	2G	2d	2b
1r	1r	2c	2e	2cc
.	.	2d	2f#	2a
=5	=5	=5	=5	=5
0r	0r	2B	2g	2b
.	.	2A	2.a	2.cc
.	.	1e	.	.
.	.	.	4g	4b
.	.	.	[2g	4b
.	.	.	.	8a
.	.	.	.	8g
=6	=6	=6	=6	=6
1r	2r	1d	2g]	1a
.	1d	.	2f#	.
[1G	.	2r	[1g	2.b
.	2e	2G	.	.
.	.	.	.	4cc
=7	=7	=7	=7	=7
2G]	2.d	2B	2g]	1dd
2F#	.	2A	2a	.
.	4c	.	.	.
2G	4B	2B	1g	1r
.	4A	.	.	.
2E	2G	2c	.	.
=8	=8	=8	=8	=8
2F	2A	2d	0r	0r
2.G	2.B	2.e	.	.
4F	4A	4d	.	.
4F	2A	[2d	.	.
8E	.	.	.	.
8D	.	.	.	.
=9	=9	=9	=9	=9
1E	1G	2d]	1.g	2r
.	.	2c#	.	2g
1D	2r	1d	.	2b
.	2d	.	2f#	2a
=10	=10	=10	=10	=10
0r	2G	0r	2g	2b
.	2A	.	2e	2cc
.	2d	.	2f	2dd
.	[2c	.	[2g	[2ee
=11	=11	=11	=11	=11
0r	4c]	1r	4g]	4ee]
.	4d	.	4f	4dd
.	2B-	.	4f	1dd
.	.	.	8e	.
.	.	.	8d	.
.	1A	2r	1e	.
.	.	[2a	.	2cc#
=12	=12	=12	=12	=12
2r	1B-	2a]	1d	1dd
1d	.	2g	.	.
.	2A	2.a	1e	1r
2c#	[2a	.	.	.
.	.	4g	.	.
=13	=13	=13	=13	=13
2d	2a]	4f	1d	0r
.	.	4e	.	.
2B-	2g	2d	.	.
2c	2.a	2e	2r	.
[2d	.	2f	[2a	.
.	4g	.	.	.
=14	=14	=14	=14	=14
4d]	4f	1d	2a]	0r
4c	4e	.	.	.
2B-	2d	.	2g	.
1A	2e	1c	2a	.
.	2f	.	[2cc	.
=15	=15	=15	=15	=15
0G	[0g	1d	2cc]	1r
.	.	.	4b	.
.	.	.	4a	.
.	.	2r	2b	2r
.	.	2g	2b	2dd
=16	=16	=16	=16	=16
0r	1g]	1c	1cc	1ee
.	1r	2d	2a	2ff#
.	.	2d	2a	2ff#
=17	=17	=17	=17	=17
1r	0r	2e	2g	2gg
.	.	2e	2b	2gg
2r	.	4c	2.cc	1ee
.	.	4d	.	.
2c	.	4e	.	.
.	.	8d	4b	.
.	.	8e	.	.
=18	=18	=18	=18	=18
1F	1r	2.f	1a	2dd
.	.	.	.	1cc
.	.	4e	.	.
2G	2r	2d	2.g	.
2G	2g	[2e	.	2b
.	.	.	4f	.
=19	=19	=19	=19	=19
1A	1c	4e]	2e	1cc
.	.	4d	.	.
.	.	1c	2f#	.
2.G	2d	.	[1g	1r
.	2d	4B	.	.
4F	.	4A	.	.
=20	=20	=20	=20	=20
4E	2e	1B	1g]	1gg
4F	.	.	.	.
2G	2.d	.	.	.
2.F	.	2A	1a	1cc
.	4c	.	.	.
.	[2c	[2a	.	.
4E	.	.	.	.
=21	=21	=21	=21	=21
1D	2c]	2a]	1r	2dd
.	2B	4g	.	2dd
.	.	4f	.	.
2C	[1c	4e	1g	2ee
.	.	4d	.	.
2c	.	2e	.	2ee
=22	=22	=22	=22	=22
1F	1c]	1f	1a	2cc
.	.	.	.	2cc
1G	2r	1d	2b	2r
.	2g	.	2b	2dd
=23	=23	=23	=23	=23
0r	1c	0r	2cc	1ee
.	.	.	2cc	.
.	2d	.	1a	2ff#
.	2d	.	.	2ff#
=24	=24	=24	=24	=24
1r	2.e	1r	2g	2gg
.	.	.	1cc	2ee
.	4f#	.	.	.
1G	1g	2r	.	1dd
.	.	2g	2b	.
=25	=25	=25	=25	=25
1A	2e	1c	1cc	1cc
.	1a	.	.	.
2B	.	2d	1r	1r
2B	[2g	2d	.	.
=26	=26	=26	=26	=26
2c	4g]	1.e	1r	1r
.	4f	.	.	.
2c	4e	.	.	.
.	4d	.	.	.
1A	1c	.	[1cc	[1ee
.	.	2f#	.	.
=27	=27	=27	=27	=27
1G	0r	1g	2cc]	2ee]
.	.	.	2b	2dd
1r	.	1c	2a	2cc
.	.	.	[2g	2b
=28	=28	=28	=28	=28
1r	1r	1d	2g]	1a
.	.	.	2f#	.
[1c	[1e	1r	4g	[1g
.	.	.	4f	.
.	.	.	4e	.
.	.	.	4d	.
=29	=29	=29	=29	=29
2c]	2e]	0r	2c	1g]
2B	2d	.	2g	.
2A	2c	.	2f	1r
2G	2B	.	2e	.
=30	=30	=30	=30	=30
1F	2A	1.a	2d	2r
.	2B	.	2c	1cc
1E	4c	.	1e	.
.	4d	.	.	.
.	2e	2g	.	2b
=31	=31	=31	=31	=31
0r	1A	2f	2r	2a
.	.	2e	2a	2cc
.	[1a	1d	4f	4dd
.	.	.	4g	4ee
.	.	.	4a	[2ff
.	.	.	4b	.
=32	=32	=32	=32	=32
0r	2a]	1c	1cc	2ff]
.	2g	.	.	2ee
.	2f	1F	2a	2dd
.	2e	.	2a	[2cc
=33	=33	=33	=33	=33
1r	1d	1G	1g	2cc]
.	.	.	.	2b
[1A	2.c	2.A	2e	2cc
.	.	.	[2cc	[2a
.	4d	4B	.	.
=34	=34	=34	=34	=34
2A]	4e	2c	2cc]	2a]
.	4f#	.	.	.
2G	2g	2.d	2b	2b
2F	1c	.	2a	2cc
.	.	4c	.	.
2E	.	[2c	2g	2cc
=35	=35	=35	=35	=35
1D	1r	2c]	1f	1dd
.	.	2B	.	.
2C	2r	2c	2e	1g
[2C	[2g	[2e	[2cc	.
=36	=36	=36	=36	=36
2C]	2g]	2e]	2cc]	0r
2D	2f	2d	2b	.
2F	2f	2c	2a	.
2G	2e	2B	[2g	.
=37	=37	=37	=37	=37
0D	2.d	0A	2g]	1r
.	.	.	4f#	.
.	4c	.	4e	.
.	4d	.	1f#	1a
.	4e	.	.	.
.	[2d	.	.	.
=38	=38	=38	=38	=38
0G	2d]	1G	2g	2b
.	1c	.	2e	2cc
.	.	2.g	1d	1dd
.	2B	.	.	.
.	.	4f	.	.
=39	=39	=39	=39	=39
0C	0c	2e	0g	0ee
.	.	2d	.	.
.	.	1c	.	.
=40	=40	=40	=40	=40
0G	0d	0B	0g	0dd
==	==	==	==	==
*-	*-	*-	*-	*-
!!!CDT: 1525/^1526/-1594/2/2
!!!OCY: Italia
!!!AGN: Mass (Parody)
!!!AST: renaissance, vocal
!!!ASW: Motet 1569 (Palestrina)
!!!PWK: Masses, Book 8
!!!RNB: Cadence finals: C,D
!!!YOR: Le Opere Complete, v. 24, p. 52
!!!YOO: Rome, Italy: Fratelli Scalera
!!!END: 1992//
!!!EED: John Miller
!!!YEC: Copyright 2000, John Miller
!!!YEN: United States of America
!!!YEM: Rights to all derivative electronic formats reserved.
!!!YEM: Refer to licensing agreement for further details.
!!!YEM: This file must be accompanied by the licensing agreement.
!!!YEM: A copy of the licensing agreement may be found at http://www.music-cog.ohio-state.edu/HumdrumDatabases/Palestrina/license.txt
!!!EMD: converted to Humdrum by Bret Aarden
